X: 228
T: Bağda Gülü Budadım
C: (Anonim)
O: Turkey
F: http://compmusic.upf.edu/node/140
N: tahir--turku--nimsofyan--bagda_gulu--ankara
N: makam= tahir
N: form= turku
N: usul= nimsofyan = 2/4
M: 2/4
L: 1/16
K: C _2/4B ^3/4f  
Q: 1/4=87
%%MIDI tuningsystem comma53
c2cd d2{c}d2  | {B}c3d BABA  | c2cd d2{c}d2  | \
w:  ARANAĞME  |   |   | 
{B}c3d BABA  | 
w:   | 
c2cd d2d2  | c3d BABA  | c2BA BAA2  | A2AA AAA2  | 
w:   |   |   |   | 
c2cd d2{c}d2  | {B}c3d BABA  | c2cd d2{c}d2  | \
w:  ARANAĞME  |   |   | 
{B}c3d BABA  | 
w:   | 
c2cd d2d2  | c3d BABA  | c2BA BAA2  | A2A2 A2fg  | 
w:   |   |   |   | 
a2z2 a2z2  | a2z2 fga2  | a2a2 ag/f/gf  | \
w:   |  *  Bağ *  da   |  gü lü   | 
a2a2 af3  | e2ed ede2  | 
w:  bu da  |  dım   SAZ  | 
fga2 a2a2  | a2a2 ag/f/gf  | g2a2 af3  | \
w:  A ma nın  bağ da   |  gü lü   |  bu da  | 
e2ed ede2  | 
w:  dım   SAZ  | 
fgaa aa3  | aa3 gfgf  | gffg fga2  | agfg e/=f/e/f/de  | 
w:  Hay *  di  de  gü lü   |  gü le   |  bağ *  la  |  dım    | 
d2dd dcd2  | c2cd BAB2  | cd2d dcdB  | cc3 B4  | 
w:  *  Su  ge lir  *  gül  |  dür  *  *  gül *  dür   |  Gel  *  de  yâr  *  be  |  ni  gül dür   | 
c2d2 dcd2  | dc3 BAB2  | c2BA BAA2  | AA3 A2A2  | \
w:  Bir  dam la cık   |  ka nım  ak *  maz    |  Öl *  dü rür *  sen   |  sen_ öl dür    | 
d2dd dcd2  | 
w:  *  Su  ge lir  *  gül  | 
c2cd BAB2  | cd2d dcdB  | cc3 B4  | c2d2 dcd2  | 
w:  dür  *  *  gül *  dür   |  Gel  *  de  yâr  *  be  |  ni  gül dür   |  Bir  dam la cık   | 
dc3 BAB2  | c2BA BAA2  | AA3 A2A2  | c2cd d2{c}d2  | \
w:  ka nım  ak *  maz    |  Öl *  dü rür *  sen   |  sen_ öl dür    |  ARANAĞME  | 
{B}c3d BABA  | 
w:   | 
c2cd d2{c}d2  | {B}c3d BABA  | c2cd d2d2  | \
w:   |   |   | 
c3d BABA  | 
w:   | 
c2BA BAA2  | A2AA AAA2  | c2cd d2{c}d2  | \
w:   |   |  ARANAĞME  | 
{B}c3d BABA  | 
w:   | 
c2cd d2{c}d2  | {B}c3d BABA  | c2cd d2d2  | \
w:   |   |   | 
c3d BABA  | 
w:   | 
c2BA BAA2  | A2A2 A2fg  | a2z2 a2z2  | a2z2 fga2  | \
w:   |   |   |  *  Bağ *  da   | 
a2a2 ag/f/gf  | 
w:  gü lü   | 
a2a2 af3  | e2ed ede2  | fga2 a2a2  | a2a2 ag/f/gf  | 
w:  bu da  |  dım   SAZ  |  A ma nın  bağ da   |  gü lü   | 
g2a2 af3  | e2ed ede2  | fgaa aa3  | aa3 gfgf  | 
w:  bu da  |  dım   SAZ  |  Hay *  di  de  gü lü   |  gü le   | 
gffg fga2  | agfg e/=f/e/f/de  | d2dd dcd2  | 
w:  bağ *  la  |  dım    |  *  Su  ge lir  *  gül  | 
c2cd BAB2  | cd2d dcdB  | cc3 B4  | c2d2 dcd2  | 
w:  dür  *  *  gül *  dür   |  Gel  *  de  yâr  *  be  |  ni  gül dür   |  Bir  dam la cık   | 
dc3 BAB2  | c2BA BAA2  | AA3 A2A2  | d2dd dcd2  | 
w:  ka nım  ak *  maz    |  Öl *  dü rür *  sen   |  sen_ öl dür    |  *  Su  ge lir  *  gül  | 
c2cd BAB2  | cd2d dcdB  | cc3 B4  | c2d2 dcd2  | 
w:  dür  *  *  gül *  dür   |  Gel  *  de  yâr  *  be  |  ni  gül dür   |  Bir  dam la cık   | 
dc3 BAB2  | c2BA BAA2  | AA3 A2A2  | |


